assets/images/user-icon.svg

<svg width="80" height="80" viewBox="0 0 80 80" fill="none" xmlns="http://www.w3.org/2000/svg">
<circle cx="40" cy="40" r="40" fill="#F0F1F2"/>
<path d="M39.5 22C34.4114 22 30.2715 26.2582 30.2715 31.4922C30.2715 36.7262 34.4114 40.9844 39.5 40.9844C44.5886 40.9844 48.7285 36.7262 48.7285 31.4922C48.7285 26.2582 44.5886 22 39.5 22ZM50.9821 47.1856C48.4555 44.5469 45.1061 43.0938 41.5508 43.0938H37.4492C33.894 43.0938 30.5445 44.5469 28.0179 47.1856C25.5038 49.8113 24.1191 53.2773 24.1191 56.9453C24.1191 57.5278 24.5782 58 25.1445 58H53.8555C54.4218 58 54.8809 57.5278 54.8809 56.9453C54.8809 53.2773 53.4962 49.8113 50.9821 47.1856Z" fill="#004B98"/>
</svg>

<svg width="80" height="80" fill="none" xmlns="http://www.w3.org/2000/svg"><circle cx="40" cy="40" r="40" fill="#F0F1F2"/><path d="M39.5 22c-5.089 0-9.229 4.258-9.229 9.492 0 5.234 4.14 9.492 9.229 9.492 5.089 0 9.228-4.258 9.228-9.492 0-5.234-4.14-9.492-9.228-9.492Zm11.482 25.186c-2.526-2.64-5.876-4.092-9.431-4.092h-4.102c-3.555 0-6.904 1.453-9.431 4.092-2.514 2.625-3.899 6.091-3.899 9.76 0 .582.46 1.054 1.026 1.054h28.71c.567 0 1.026-.472 1.026-1.055 0-3.668-1.385-7.134-3.899-9.76Z" fill="#004B98"/></svg>
